src/cmd/lc_superscript.svg

<?xml version="1.0" encoding="UTF-8" standalone="no"?>
<svg
   xmlns:dc="http://purl.org/dc/elements/1.1/"
   xmlns:cc="http://creativecommons.org/ns#"
   xmlns:rdf="http://www.w3.org/1999/02/22-rdf-syntax-ns#"
   xmlns:svg="http://www.w3.org/2000/svg"
   xmlns="http://www.w3.org/2000/svg"
   xmlns:sodipodi="http://sodipodi.sourceforge.net/DTD/sodipodi-0.dtd"
   xmlns:inkscape="http://www.inkscape.org/namespaces/inkscape"
   viewBox="0 0 24 24"
   version="1.1"
   id="svg6"
   sodipodi:docname="lc_superscript.svg"
   inkscape:version="0.92.4 (5da689c313, 2019-01-14)"
   inkscape:export-filename="/home/jupiter007/Téléchargements/libreoffice yaru/images_breeze/cmd/lc_superscript.png"
   inkscape:export-xdpi="95"
   inkscape:export-ydpi="95">
  <metadata
     id="metadata12">
    <rdf:RDF>
      <cc:Work
         rdf:about="">
        <dc:format>image/svg+xml</dc:format>
        <dc:type
           rdf:resource="http://purl.org/dc/dcmitype/StillImage" />
      </cc:Work>
    </rdf:RDF>
  </metadata>
  <defs
     id="defs10" />
  <sodipodi:namedview
     pagecolor="#ffffff"
     bordercolor="#666666"
     borderopacity="1"
     objecttolerance="10"
     gridtolerance="10"
     guidetolerance="10"
     inkscape:pageopacity="0"
     inkscape:pageshadow="2"
     inkscape:window-width="1920"
     inkscape:window-height="1011"
     id="namedview8"
     showgrid="false"
     inkscape:zoom="9.8333333"
     inkscape:cx="12"
     inkscape:cy="12"
     inkscape:window-x="0"
     inkscape:window-y="32"
     inkscape:window-maximized="1"
     inkscape:current-layer="svg6" />
  <path
     d="m10.910156 5-3.3144529 9.59375-.1230469.40625-1.4726562 4h1.6582031l1.625-4.4375h5.4335939l1.625 4.4375h1.658203l-1.472656-4-.123047-.40625-3.314453-9.59375h-.214844-1.75zm1.105469 1.9375 2.179687 6.34375h-4.3906245z"
     fill="#232629"
     id="path2" />
  <path
     d="m16 3v2 1 2 1h1 2c1.108 0 2-.892 2-2 0-.81094-.481275-1.5018962-1.171875-1.8164062.10595-.2058501.171875-.4352838.171875-.6835938 0-.831-.669-1.5-1.5-1.5h-1.5zm1 1h1.5c.277 0 .5.223.5.5s-.223.5-.5.5h-1.5zm0 2h1.5.5c.554 0 1 .446 1 1s-.446 1-1 1h-2z"
     fill="#762572"
     id="path4"
     style="fill:#762572;fill-opacity:1" />
</svg>

<?xml version="1.0" encoding="UTF-8" standalone="no"?>
<svg
   xmlns:dc="http://purl.org/dc/elements/1.1/"
   xmlns:cc="http://creativecommons.org/ns#"
   xmlns:rdf="http://www.w3.org/1999/02/22-rdf-syntax-ns#"
   xmlns:svg="http://www.w3.org/2000/svg"
   xmlns="http://www.w3.org/2000/svg"
   xmlns:sodipodi="http://sodipodi.sourceforge.net/DTD/sodipodi-0.dtd"
   xmlns:inkscape="http://www.inkscape.org/namespaces/inkscape"
   viewBox="0 0 24 24"
   version="1.1"
   id="svg6"
   sodipodi:docname="lc_superscript.svg"
   inkscape:version="0.92.4 (5da689c313, 2019-01-14)"
   inkscape:export-filename="/home/jupiter007/Libreoffice yaru theme fullcolor/build/cmd/lc_superscript.png"
   inkscape:export-xdpi="95"
   inkscape:export-ydpi="95">
  <metadata
     id="metadata12">
    <rdf:RDF>
      <cc:Work
         rdf:about="">
        <dc:format>image/svg+xml</dc:format>
        <dc:type
           rdf:resource="http://purl.org/dc/dcmitype/StillImage" />
      </cc:Work>
    </rdf:RDF>
  </metadata>
  <defs
     id="defs10" />
  <sodipodi:namedview
     pagecolor="#ffffff"
     bordercolor="#666666"
     borderopacity="1"
     objecttolerance="10"
     gridtolerance="10"
     guidetolerance="10"
     inkscape:pageopacity="0"
     inkscape:pageshadow="2"
     inkscape:window-width="1920"
     inkscape:window-height="1011"
     id="namedview8"
     showgrid="true"
     inkscape:zoom="22.627417"
     inkscape:cx="12.013715"
     inkscape:cy="4.7516006"
     inkscape:window-x="1920"
     inkscape:window-y="32"
     inkscape:window-maximized="1"
     inkscape:current-layer="svg6">
    <inkscape:grid
       type="xygrid"
       id="grid815" />
  </sodipodi:namedview>
  <path
     style="fill:#ffffff;fill-opacity:1;stroke-width:2;stroke-miterlimit:4;stroke-dasharray:none;stroke:#ffffff;stroke-opacity:1;stroke-linejoin:round;opacity:1"
     id="path818"
     fill="#762572"
     d="m16 3v2 1 2 1h1 2c1.108 0 2-.892 2-2 0-.81094-.481275-1.5018962-1.171875-1.8164062.10595-.2058501.171875-.4352838.171875-.6835938 0-.831-.669-1.5-1.5-1.5h-1.5zm1 1h1.5c.277 0 .5.223.5.5s-.223.5-.5.5h-1.5zm0 2h1.5.5c.554 0 1 .446 1 1s-.446 1-1 1h-2z" />
  <path
     sodipodi:nodetypes="ccccccccccccccccccccc"
     inkscape:connector-curvature="0"
     style="fill:#ffffff;fill-opacity:1;stroke:#ffffff;stroke-opacity:1;stroke-width:2;stroke-miterlimit:4;stroke-dasharray:none"
     id="path819"
     d="M 9.8999976,13.007781 12.015625,6.9375 14.099768,13.003181 Z M 14.495276,14 14.716797,14.5625 16.341797,19 H 18 L 16.527344,15 16.404297,14.59375 13.089844,5 H 12.875 11.125 10.910156 L 7.5957031,14.59375 7.4726562,15 6,19 h 1.6582031 l 1.625,-4.4375 0.2233548,-0.562998 z" />
  <path
     d="M 9.8999976,13.007781 12.015625,6.9375 14.099768,13.003181 Z M 14.495276,14 14.716797,14.5625 16.341797,19 H 18 L 16.527344,15 16.404297,14.59375 13.089844,5 H 12.875 11.125 10.910156 L 7.5957031,14.59375 7.4726562,15 6,19 h 1.6582031 l 1.625,-4.4375 0.2233548,-0.562998 z"
     id="path2"
     style="fill:#6d6d6d;fill-opacity:1"
     inkscape:connector-curvature="0"
     sodipodi:nodetypes="ccccccccccccccccccccc" />
  <path
     d="m16 3v2 1 2 1h1 2c1.108 0 2-.892 2-2 0-.81094-.481275-1.5018962-1.171875-1.8164062.10595-.2058501.171875-.4352838.171875-.6835938 0-.831-.669-1.5-1.5-1.5h-1.5zm1 1h1.5c.277 0 .5.223.5.5s-.223.5-.5.5h-1.5zm0 2h1.5.5c.554 0 1 .446 1 1s-.446 1-1 1h-2z"
     fill="#762572"
     id="path4"
     style="fill:#762572;fill-opacity:1" />
</svg>
